!!!OTL: Die Brombeerpflueckerin Es soll ein Maedel fruh aufstehn
!!!ARE: Europa, Osteuropa, Tschechoslowakei, Slowakei, Dt. Proben, Kremnitz,
!!    Glaserhaeu
!!!ARD1: Europa%Osteuropa%Tschechoslowakei@Dt. Proben:Kremnitz!Glaserhaeu!?
!!!ARL1: ? / ?
!!!ARD2: Europa%Osteuropa%Slovensko@Dt. Proben:Kremnitz!
!!!ARL2: 48.70/18.91!
!!!YOR: 7, S. 77
!!    1930 aufgezeichnet
!!!SCT: Q0147D
!!!YEM: Copyright 1995, estate of Helmut Schaffrath.
**kern
*ICvox
*Ivox
*M6/8
*k[f#c#]
*D:
{8f#
=1
4a
8a
4a
8b
=2
4a
8g
4f#}
{8a
=3
4dd
8dd
4cc#
8b
=4
4g
4.r}
{8cc#
=5
8ee
8dd
8b
8ee
8dd
8b
=6
4a
8dd
4a}
{8dd
=7
4cc#
8b
8a
8g
8a
=8
4f#
4.r}
{8a
=9
8ee
8dd
8b
8ee
8dd
8b
=10
4a
8dd
4a}
{8dd
=11
4cc#
8b
8a
8g
8a
=12
4f#
4.r}
==
!!!AGN: Ballade, Verfuehrung, Schwangerschaft
!! Vierte und siebte Zeile refrainartig.
!!!ONB: ESAC (Essen Associative Code) Database: BALLADE
!!!AMT: compound duple
!!!AIN: vox
!!!EED: Helmut Schaffrath
!!!EEV: 1.0
*-
!!!title: @{OTL} [@{SCT}]
